X:193
T: ES WAR EINE REICHE JUEDIN
N: E0098F
O: Europa, Mitteleuropa, Deutschland, Kreis Limburg; Kreis Wetzlar
R: erzaehlendes Volks - Lied, Sage, Liebe, Leid
M: 6/8
L: 1/8
K: G
D | B2AG2E | EDz3
D | G2GB2G | A3z2
D | B2Bd2d | c3E2
E | D2GB2A | G3z2

@@@ Tune index: 3843
